assets/sonr-icons/edit.svg

<svg xmlns="http://www.w3.org/2000/svg" width="24" height="24" fill="none" viewBox="0 0 24 24"><path fill="#000" d="M11 4.99994C11.5523 4.99994 12 4.55223 12 3.99994C12 3.44766 11.5523 2.99994 11 2.99994V4.99994ZM21 12.9999C21 12.4477 20.5523 11.9999 20 11.9999C19.4477 11.9999 19 12.4477 19 12.9999H21ZM9 14.9999H8C8 15.5522 8.44772 15.9999 9 15.9999V14.9999ZM16.8 18.9999H7.2V20.9999H16.8V18.9999ZM5 16.7999V7.19994H3V16.7999H5ZM7.2 4.99994H11V2.99994H7.2V4.99994ZM19 12.9999V16.7999H21V12.9999H19ZM7.2 18.9999C6.62345 18.9999 6.25117 18.9992 5.96784 18.976C5.69617 18.9538 5.59545 18.9161 5.54601 18.8909L4.63803 20.673C5.01641 20.8658 5.40963 20.9371 5.80497 20.9694C6.18864 21.0007 6.65645 20.9999 7.2 20.9999V18.9999ZM3 16.7999C3 17.3435 2.99922 17.8113 3.03057 18.195C3.06287 18.5903 3.13419 18.9835 3.32698 19.3619L5.10899 18.4539C5.0838 18.4045 5.04612 18.3038 5.02393 18.0321C5.00078 17.7488 5 17.3765 5 16.7999H3ZM5.54601 18.8909C5.35785 18.7951 5.20487 18.6421 5.10899 18.4539L3.32698 19.3619C3.6146 19.9264 4.07354 20.3853 4.63803 20.673L5.54601 18.8909ZM16.8 20.9999C17.3436 20.9999 17.8114 21.0007 18.195 20.9694C18.5904 20.9371 18.9836 20.8658 19.362 20.673L18.454 18.8909C18.4045 18.9161 18.3038 18.9538 18.0322 18.976C17.7488 18.9992 17.3766 18.9999 16.8 18.9999V20.9999ZM19 16.7999C19 17.3765 18.9992 17.7488 18.9761 18.0321C18.9539 18.3038 18.9162 18.4045 18.891 18.4539L20.673 19.3619C20.8658 18.9835 20.9371 18.5903 20.9694 18.195C21.0008 17.8113 21 17.3435 21 16.7999H19ZM19.362 20.673C19.9265 20.3853 20.3854 19.9264 20.673 19.3619L18.891 18.4539C18.7951 18.6421 18.6422 18.7951 18.454 18.8909L19.362 20.673ZM5 7.19994C5 6.62339 5.00078 6.25111 5.02393 5.96778C5.04612 5.69611 5.0838 5.5954 5.10899 5.54595L3.32698 4.63797C3.13419 5.01635 3.06287 5.40957 3.03057 5.80491C2.99922 6.18858 3 6.65639 3 7.19994H5ZM7.2 2.99994C6.65645 2.99994 6.18864 2.99916 5.80497 3.03051C5.40963 3.06281 5.01641 3.13413 4.63803 3.32692L5.54601 5.10894C5.59545 5.08374 5.69617 5.04606 5.96784 5.02387C6.25117 5.00072 6.62345 4.99994 7.2 4.99994V2.99994ZM5.10899 5.54595C5.20487 5.35779 5.35785 5.20481 5.54601 5.10894L4.63803 3.32692C4.07354 3.61454 3.6146 4.07348 3.32698 4.63797L5.10899 5.54595ZM8 12.4142V14.9999H10V12.4142H8ZM9 15.9999H11.5858V13.9999H9V15.9999ZM10 12.4142L18.0429 4.37126L16.6287 2.95705L8.58579 10.9999L10 12.4142ZM19.4571 4.37126L19.6287 4.54283L21.0429 3.12862L20.8713 2.95705L19.4571 4.37126ZM19.6287 5.95705L11.5858 13.9999L13 15.4142L21.0429 7.37126L19.6287 5.95705ZM19.6287 4.54283C20.0192 4.93336 20.0192 5.56653 19.6287 5.95705L21.0429 7.37126C22.2145 6.19969 22.2145 4.30019 21.0429 3.12862L19.6287 4.54283ZM18.0429 4.37126C18.4334 3.98074 19.0666 3.98074 19.4571 4.37126L20.8713 2.95705C19.6997 1.78548 17.8003 1.78548 16.6287 2.95705L18.0429 4.37126ZM11.5858 15.9999C12.1162 15.9999 12.6249 15.7892 13 15.4142L11.5858 13.9999V15.9999ZM10 12.4142L8.58579 10.9999C8.21071 11.375 8 11.8837 8 12.4142H10Z"/></svg>

<svg xmlns="http://www.w3.org/2000/svg" width="24" height="24" fill="none"><path fill="currentColor" d="M11 5a1 1 0 1 0 0-2zm10 8a1 1 0 0 0-2 0zM9 15H8a1 1 0 0 0 1 1zm7.8 4H7.2v2h9.6zM5 16.8V7.2H3v9.6zM7.2 5H11V3H7.2zM19 13v3.8h2V13zM7.2 19c-.577 0-.949 0-1.232-.024-.272-.022-.373-.06-.422-.085l-.908 1.782c.378.193.772.264 1.167.296.384.032.851.03 1.395.03zM3 16.8c0 .543 0 1.011.03 1.395.033.395.104.788.297 1.167l1.782-.908c-.025-.05-.063-.15-.085-.422C5 17.75 5 17.377 5 16.8zm2.546 2.09a1 1 0 0 1-.437-.436l-1.782.908a3 3 0 0 0 1.311 1.311zM16.8 21c.544 0 1.011 0 1.395-.03.395-.033.789-.104 1.167-.297l-.908-1.782c-.05.025-.15.063-.422.085-.283.023-.655.024-1.232.024zm2.2-4.2c0 .576 0 .949-.024 1.232-.022.272-.06.372-.085.422l1.782.908c.193-.378.264-.772.296-1.167.032-.384.031-.852.031-1.395zm.362 3.873a3 3 0 0 0 1.311-1.311l-1.782-.908a1 1 0 0 1-.437.437zM5 7.2c0-.577 0-.949.024-1.232.022-.272.06-.373.085-.422l-1.782-.908c-.193.378-.264.772-.296 1.167C2.999 6.189 3 6.656 3 7.2zM7.2 3c-.544 0-1.011 0-1.395.03-.395.033-.789.104-1.167.297l.908 1.782c.05-.025.15-.063.422-.085C6.25 5 6.623 5 7.2 5zM5.109 5.546a1 1 0 0 1 .437-.437l-.908-1.782a3 3 0 0 0-1.311 1.311zM8 12.414V15h2v-2.586zM9 16h2.586v-2H9zm1-3.586 8.043-8.043-1.414-1.414L8.586 11zm9.457-8.043.172.172 1.414-1.414-.172-.172zm.172 1.586L11.586 14 13 15.414l8.043-8.043zm0-1.414a1 1 0 0 1 0 1.414l1.414 1.414a3 3 0 0 0 0-4.242zm-1.586-.172a1 1 0 0 1 1.414 0l1.414-1.414a3 3 0 0 0-4.242 0zM11.586 16A2 2 0 0 0 13 15.414L11.586 14zM10 12.414 8.586 11A2 2 0 0 0 8 12.414z"/></svg>
